icons/download.svg

<svg width="24" height="24" viewBox="0 0 24 24" fill="none" xmlns="http://www.w3.org/2000/svg">
<path fill-rule="evenodd" clip-rule="evenodd" d="M13 3C13 2.44772 12.5523 2 12 2C11.4477 2 11 2.44772 11 3V12.2268L6.67572 8.26285C6.26861 7.88965 5.63604 7.91716 5.26285 8.32428C4.88965 8.73139 4.91716 9.36396 5.32428 9.73715L11.3243 15.2372C11.7066 15.5876 12.2934 15.5876 12.6757 15.2372L18.6757 9.73715C19.0828 9.36396 19.1103 8.73139 18.7372 8.32428C18.364 7.91716 17.7314 7.88965 17.3243 8.26285L13 12.2268V3ZM4 16C4 15.4477 3.55228 15 3 15C2.44772 15 2 15.4477 2 16V19.9047C2 21.0799 3.00508 21.9988 4.17074 21.904C5.95102 21.7594 9.49747 21.5 12 21.5C14.5025 21.5 18.049 21.7594 19.8293 21.904C20.9949 21.9988 22 21.0799 22 19.9047V16C22 15.4477 21.5523 15 21 15C20.4477 15 20 15.4477 20 16V19.9047L20 19.9063C19.9997 19.9067 19.9991 19.9074 19.9982 19.9083C19.9964 19.9099 19.9949 19.9105 19.9946 19.9106L19.9945 19.9107C19.9945 19.9107 19.9935 19.9108 19.9913 19.9106C18.2144 19.7662 14.5935 19.5 12 19.5C9.40649 19.5 5.7856 19.7662 4.00873 19.9106C4.00647 19.9108 4.00553 19.9107 4.00552 19.9107L4.00538 19.9106C4.00505 19.9105 4.0036 19.9099 4.00184 19.9083C4.00129 19.9078 4.00086 19.9073 4.00055 19.9069C4.00033 19.9067 4.00017 19.9064 4.00005 19.9063L4 19.9047V16Z" fill="#333333"/>
</svg>

<svg xmlns="http://www.w3.org/2000/svg" width="24" height="24" fill="none" viewBox="0 0 24 24">
  <path fill="#333" fill-rule="evenodd" d="M13 3a1 1 0 10-2 0v9.227L6.676 8.263a1 1 0 10-1.352 1.474l6 5.5a1 1 0 001.352 0l6-5.5a1 1 0 00-1.352-1.474L13 12.227V3zM4 16a1 1 0 10-2 0v3.905a2.007 2.007 0 002.17 1.999c1.781-.145 5.327-.404 7.83-.404 2.502 0 6.049.26 7.83.404a2.007 2.007 0 002.17-2V16a1 1 0 10-2 0v3.906l-.002.002a.012.012 0 01-.003.003h-.004c-1.777-.145-5.397-.411-7.991-.411-2.594 0-6.214.266-7.991.41h-.003l-.004-.002L4 19.907V16z"/>
</svg>
